X:1
T:One By One
T:One By One
T:John Rogers Thomas
T:Adelaide Anne Procter
T:Do not look at life’s long sorrow; See how small each moment’s pain; God will help thee for to-morrow, So each day begin again. Every hour that fleets so slowly Has its task to do or bear; Luminous the crown, and holy, When each gem is set with care. Do not linger with regretting, Or for passing hours despond; Nor, the daily toil forgetting, Look too eagerly beyond. Hours are golden links, God’s token, Reaching Heaven; but one by one Take them, lest the chain be broken Ere the pilgrimage be done. 
T:One by one the sands are flowing, One by one the moments fall; Some are coming, some are going; Do not strive to grasp them all. One by one thy duties wait thee, Let thy whole strength go to each, Let no future dreams elate thee, Learn thou first what these can teach. One by one (bright gifts from Heaven) Joys are sent thee here below; Take them readily when given, Ready too to let them go. One by one thy griefs shall meet thee, Do not fear an armèd band; One will fade as others greet thee; Shadows passing through the land. 
T:Adelaide Anne Procter – Legends and Lyrics First Series
T:Public Domain - https://imslp.org/wiki/One_By_One_(Thomas%2C_John_Rogers)
T:Public Domain - https://imslp.org/wiki/One_By_One_(Thomas%2C_John_Rogers)
T:Public Domain - https://imslp.org/wiki/One_By_One_(Thomas%2C_John_Rogers)
C:John Rogers Thomas
Z:Adelaide A. Procter
Z:Public Domain - https://imslp.org/wiki/One_By_One_(Thomas%2C_John_Rogers)
%%score ( 1 2 ) { ( 3 5 ) | 4 }
L:1/8
Q:1/4=98
M:4/4
K:G
V:1 treble nm="Soprano"
V:2 treble 
V:3 treble nm="Piano"
V:5 treble 
V:4 bass 
V:1
"^Moderato" z8 | z8 | z8 | z8 |]S B2 B2 B3 B | B>F (3(.A.G.F) G2 D2 | E2 G2 D3 G | %7
w: ||||1. One by one the|sands * are * * flow\- ing|One by one the|
w: ||||2. One by one brighy|gifts * from * * hea\- ven|Jois are sent thee|
 (B2- (3(.B.^G .B)) (A3 ^A) | B2 A2 !>!c2 B2 | B>F (3(AGF) G2 A2 | B2 B2 !>!d3 ^c/B/ | %11
w: mo\- _ _ ments fall; *|Some are com\- ing,|some * are * * go\- ing,|Do not strive to *|
w: here _ _ be\- low, *|Take them rea\- di\-|ly * when * * gi\- en,|Rea\- dy too to *|
"^SLENTANDO"(3(xGF) (3(^CED){^G^A} B4 | D2 D2 G3 G | G2 G2 B>c B2 | c3 c B2 A2 | (G2{AG} F) E B4 | %16
w: * * them * * all.|One by one thy|du\-\- ties call * thee,|Let thy whole strenght|go to * each;|
w: * * them * * go.|Do not look at|life long sor\- * row,|See how small each|mo\- * ment's pain;|
 B2 A2 !>!c2 B2 | (B>A) (3(.A.G.F) G2 A2 | B2 d2 !>!d3 c | B3 A G4 | D2 !>!=F2 E3 G | %21
w: Let not fu\- ture|dreams * e\- _ _ late thee,|Learn thou first what|these can teach;|Learn thou first what|
w: God will keep thee|for * to\- _ _ mor\- row,|So each day be\-|gin a\- gain;|So each day be\-|
 (F2 !fermata!A3/2) G/ G4!D.S.! | z8 | z8 | z8 | z8 |] %26
w: these * can teach.|||||
w: gin * a\- gain.|||||
V:2
 x8 | x8 | x8 | x8 |] x8 | x8 | x8 | x8 | x8 | x8 | x8 | F3 x5 | x8 | x8 | x8 | x8 | x8 | x8 | x8 | %19
 x8 | x7 _E | (D^C =C3/2) A,/ G,4 | x8 | x8 | x8 | x8 |] %26
V:3
 !>![Bb]2 !>![Bb]2 !>![Bb]3 [Bb] | [Bb]>[Aa] (3(.[Aa].[Gg].[Fg]) [Gg]2 d2 | %2
 [Bb]2 [dd']2 [dd']3 [cc'] |"_dim." [Bb]3 [Aa] [Gg]4 |]!p! (6:4:6z (B,DGDB,) (6:4:6z (B,DGDB,) | %5
 (6:4:6z (CD).F.D.C (6:4:6z (B,DGDB,) | (6:4:6z (G,CECG,) (6:4:6z (G,DGDG,) | %7
 (6:4:6z (^G,D.=F.D.G,) (6:4:6z (A,C^FD^A,) | (3(BGD) (3(ADC) (3(cGE) (3(BGD) | %9
 (6:4:6z (B,DFDB,) (3(GDB,) (3(A_EC) | (3(B,DG) (3(B,D^E) (6:4:6z (B,DFDB,) | %11
 [B,DF] z [^A,EF] z (6:4:6z (B,DFDB,) | (6:4:6z (=CDFDC) (6:4:6z (B,DGDB,) | %13
 (6:4:6z (B,DGDB,) (6:4:6z (B,^DFDB,) | (6:4:6z (CEFEC) (6:4:6z (B,^DFDB,) | %15
 (6:4:6z (^A,EFEC) [B,^DB]2 B2 | (3(BG=D) (3(ADC) (3(cGE) (3(BGD) | %17
 (6:4:6z (B,DFDB,) (3(GDB,) (3(A_EC) | (6:4:6z (B,D=FDB,) (F2 (3:2:2(E2) _E) | %19
 (6:4:6z (G,B,D^C=C) (6:4:6z (B,EGEB,) | (6:4:6z (G,D=FDG,) (6:4:6z (G,CECG,) | %21
 [B,DF]2 !fermata!z2 [B,DG]4 | [Bb]2 [Bb]2 [Bb]3 [Bb] | [Bb]>[Aa] (3(.[Aa].[Gg].[Fg]) [Gg]2 [Aa]2 | %24
 ([Bb]2 [dd']2 [^d^d'][ee'][cc'][Bb]) |"_dim." [Bb]3 [Aa] [Gg]4 |] %26
V:4
 (6:4:6(G,B,DGDB,) (6:4:6(G,B,DGDB,) | (6:4:6(D,F,A,CB,A,) (6:4:6(G,B,DGDB,) | %2
 (6:4:6(G,B,D=FDB,) (6:4:6(C,A,CECB,) | (6:4:6(D,F,A,CB,A,) [G,B,]4 |] [G,,G,]2 z2 [G,,G,]2 z2 | %5
 [D,,D,]2 z2 [G,,G,]2 z2 | C,2 z2 C,2 z2 | D,2 z2 D,2 z2 | [G,,G,]2 z2 [G,,G,]2 z2 | %9
 [D,,D,]2 z2 [G,,G,]2 z2 | [G,,G,]4 [F,,F,]2 z2 | [F,,F,] z [F,,F,] z B,,2 z2 | A,,2 z2 A,,2 z2 | %13
 [E,,E,]2 z2 B,,2 z2 | A,,2 z2 B,,2 z2 | C,4 B,,2 z2 | [G,,G,]2 z2 [G,,G,]2 z2 | %17
 [D,,D,]2 z2 [G,,G,]2 z2 | [G,,G,]2 z2 [C,,C,]2 z2 | [D,,D,]2 z2 [E,,E,]2 z2 | B,,4 C,4 | %21
 D,2 !fermata!z2 [G,,G,]4 | (6:4:6(G,B,DGDB,) (6:4:6(G,B,DGDB,) | %23
 (6:4:6(D,F,A,.C.B,.A,) (3(G,B,D) (3(G,C_E) | (6:4:6(G,B,D=FDB,) (6:4:6(C,A,CE_ED) | %25
 (6:4:6(D,G,B,D^C=C) [G,B,]4 |] %26
V:5
 x8 | x8 | x8 | x8 |] x8 | x8 | x8 | x8 | x8 | x8 | x8 | x8 | x8 | x8 | x8 | %15
 x2/3 (6:4:2^A,2- A,3 x4 | z8 | x8 | x4 (6:4:6z (G,CECG,) | x8 | x8 | x8 | x8 | x8 | x8 | x8 |] %26

